X: 58
T:Rolandskvadet
M:C
L:1/4
C:anon.
O:Norway
Z:Transcribed by Frank Nordberg - http://www.musicaviva.com
K:Dm
"Dm"AA/A/AA|"Gm"GFDD/C/|"Dm"DD/D/F"C"G|"F"A2AA|
w:
w:Seks mi-ne svei-nar hei-me ve-ra og gj\oy-me det gul-let bal-de. Dei
"Dm"AAFG|"Gm"GDDD|"Dm"FF/F/"C"EC|"Dm"D2D2||
w:
w:and-re seks p\aa heid-nings-lan-do gj\oy-me dei jar-ni kal-de.
"Dm"FF/F/AA|"Gm"GFFD|"Dm"DDF"C"G|"F"A2A2|
w:
w:Ri-a dei ut or Frank-lan-det med dy-re dros i sa-del.
"Dm"AAFG|"Gm"GDDD|"Dm"F2("C"EC)|"Dm"D2D2|]
w:
w:Bl\aes i lu-ren, O-li-vnt p\aa Ron-sar-[ext]vol-len.
W:
W:Slogest dei ut p\aa Ronsarvollen i dagane tvo og trio
W:da fekk ikkje soli skine bjart for rykjen av manneblodet.
W:   Ria dei ut...
W:
W:Roland sette luren for blodiga mundi bles han i med vreide.
W:Da rivna jord og jardarstein i trie dger av leide.
W:   Ria dei ut...
W:
W: From "Falaleiro" http://home.t-online.de/home/pheld/homepage.htm

